docs/img/card-product/promotion-label.svg

<svg width="70" height="24" viewBox="0 0 70 24" fill="none" xmlns="http://www.w3.org/2000/svg">
<rect width="70" height="24" rx="2" fill="white"/>
<rect width="70" height="24" rx="2" fill="#DC3434"/>
<path d="M19.6258 7.06H20.4518L24.5818 17H23.5458L22.2578 13.892H17.7918L16.5178 17H15.4678L19.6258 7.06ZM22.0338 13.122L20.0318 8.208L18.0018 13.122H22.0338ZM25.7967 17V9.706H26.7487V12.828H27.8407L30.2907 9.706H31.3827L28.5967 13.248L31.7327 17H30.6127L27.8407 13.71H26.7487V17H25.7967ZM38.8942 18.694V17H33.0702V9.706H34.0222V16.16H37.8022V9.706H38.7542V16.16H39.7482V18.694H38.8942ZM41.1776 17V9.72H42.1296V15.712L46.5676 9.706H47.4216V17H46.4696V11.106L42.1016 17H41.1776ZM48.9581 17L51.1281 14.018C50.6334 13.9433 50.2321 13.7287 49.9241 13.374C49.6254 13.01 49.4761 12.5153 49.4761 11.89C49.4761 11.47 49.5741 11.0967 49.7701 10.77C49.9661 10.4433 50.2414 10.182 50.5961 9.986C50.9601 9.79 51.3848 9.692 51.8701 9.692H54.6561V17H53.7041V14.172H52.0801L50.0221 17H48.9581ZM51.8561 13.444H53.7041V10.448H52.0241C51.5388 10.448 51.1514 10.588 50.8621 10.868C50.5728 11.1387 50.4281 11.484 50.4281 11.904C50.4281 12.3333 50.5448 12.6973 50.7781 12.996C51.0208 13.2947 51.3801 13.444 51.8561 13.444Z" fill="white"/>
<path d="M19.6258 7.06H20.4518L24.5818 17H23.5458L22.2578 13.892H17.7918L16.5178 17H15.4678L19.6258 7.06ZM22.0338 13.122L20.0318 8.208L18.0018 13.122H22.0338ZM25.7967 17V9.706H26.7487V12.828H27.8407L30.2907 9.706H31.3827L28.5967 13.248L31.7327 17H30.6127L27.8407 13.71H26.7487V17H25.7967ZM38.8942 18.694V17H33.0702V9.706H34.0222V16.16H37.8022V9.706H38.7542V16.16H39.7482V18.694H38.8942ZM41.1776 17V9.72H42.1296V15.712L46.5676 9.706H47.4216V17H46.4696V11.106L42.1016 17H41.1776ZM48.9581 17L51.1281 14.018C50.6334 13.9433 50.2321 13.7287 49.9241 13.374C49.6254 13.01 49.4761 12.5153 49.4761 11.89C49.4761 11.47 49.5741 11.0967 49.7701 10.77C49.9661 10.4433 50.2414 10.182 50.5961 9.986C50.9601 9.79 51.3848 9.692 51.8701 9.692H54.6561V17H53.7041V14.172H52.0801L50.0221 17H48.9581ZM51.8561 13.444H53.7041V10.448H52.0241C51.5388 10.448 51.1514 10.588 50.8621 10.868C50.5728 11.1387 50.4281 11.484 50.4281 11.904C50.4281 12.3333 50.5448 12.6973 50.7781 12.996C51.0208 13.2947 51.3801 13.444 51.8561 13.444Z" fill="white"/>
</svg>

<svg width="70" height="24" fill="none" xmlns="http://www.w3.org/2000/svg"><rect width="70" height="24" rx="2" fill="#fff"/><rect width="70" height="24" rx="2" fill="#DC3434"/><path d="M19.626 7.06h.826l4.13 9.94h-1.036l-1.288-3.108h-4.466L16.518 17h-1.05l4.158-9.94zm2.408 6.062l-2.002-4.914-2.03 4.914h4.032zM25.797 17V9.706h.952v3.122h1.092l2.45-3.122h1.092l-2.786 3.542L31.733 17h-1.12l-2.772-3.29h-1.092V17h-.952zm13.097 1.694V17H33.07V9.706h.952v6.454h3.78V9.706h.952v6.454h.994v2.534h-.854zM41.178 17V9.72h.952v5.992l4.438-6.006h.854V17h-.952v-5.894L42.102 17h-.924zm7.78 0l2.17-2.982a1.918 1.918 0 01-1.204-.644c-.299-.364-.448-.859-.448-1.484 0-.42.098-.793.294-1.12.196-.327.471-.588.826-.784.364-.196.789-.294 1.274-.294h2.786V17h-.952v-2.828H52.08L50.022 17h-1.064zm2.898-3.556h1.848v-2.996h-1.68c-.485 0-.873.14-1.162.42-.29.27-.434.616-.434 1.036 0 .43.117.793.35 1.092.243.299.602.448 1.078.448z" fill="#fff"/><path d="M19.626 7.06h.826l4.13 9.94h-1.036l-1.288-3.108h-4.466L16.518 17h-1.05l4.158-9.94zm2.408 6.062l-2.002-4.914-2.03 4.914h4.032zM25.797 17V9.706h.952v3.122h1.092l2.45-3.122h1.092l-2.786 3.542L31.733 17h-1.12l-2.772-3.29h-1.092V17h-.952zm13.097 1.694V17H33.07V9.706h.952v6.454h3.78V9.706h.952v6.454h.994v2.534h-.854zM41.178 17V9.72h.952v5.992l4.438-6.006h.854V17h-.952v-5.894L42.102 17h-.924zm7.78 0l2.17-2.982a1.918 1.918 0 01-1.204-.644c-.299-.364-.448-.859-.448-1.484 0-.42.098-.793.294-1.12.196-.327.471-.588.826-.784.364-.196.789-.294 1.274-.294h2.786V17h-.952v-2.828H52.08L50.022 17h-1.064zm2.898-3.556h1.848v-2.996h-1.68c-.485 0-.873.14-1.162.42-.29.27-.434.616-.434 1.036 0 .43.117.793.35 1.092.243.299.602.448 1.078.448z" fill="#fff"/></svg>
